X:4314
L:1/8
M:4/4
K:D
 dBAF D3 F | GFGA BEEc | dBAF DFAF | GBAG FD D2 :: d2 de f2 ed | cdeg fB B2 | gfga b2 ag | 
 faeg fd d2 :: BdAd BdAd | BdAd BE E2 | BdAd BdAg |1 faeg fd d2 :|2 faeg fdec ||

